svg/download.svg

<svg xmlns="http://www.w3.org/2000/svg" viewBox="0 0 32 32" enable-background="new 0 0 32 32"><path d="M 15 4 L 15 20.5625 L 9.71875 15.28125 L 8.28125 16.71875 L 15.28125 23.71875 L 16 24.40625 L 16.71875 23.71875 L 23.71875 16.71875 L 22.28125 15.28125 L 17 20.5625 L 17 4 L 15 4 z M 7 27 L 7 29 L 25 29 L 25 27 L 7 27 z" color="#000" overflow="visible" enable-background="accumulate"/></svg>

<svg xmlns="http://www.w3.org/2000/svg" viewBox="0 0 32 32"><path style="text-indent:0;text-align:start;line-height:normal;text-transform:none;block-progression:tb;-inkscape-font-specification:Bitstream Vera Sans" d="M15 4v16.563L9.72 15.28l-1.44 1.44 7 7 .72.686.72-.687 7-7-1.44-1.44L17 20.564V4h-2zM7 27v2h18v-2H7z" color="#000" overflow="visible" font-family="Bitstream Vera Sans"/></svg>
